X:1
T:Title
%%score { 1 | 2 }
L:1/8
M:4/4
K:Bb
V:1 treble nm="Grand Piano"
V:2 bass 
V:1
 z4 z2[Q:1/4=100] [B,D]>[CE] | [DF]2 B2 B3 c | BA A>_A =A2 C>D | E2 B2 A2 G2 | %4
[M:3/4] [EG]>[DF] [DF][_D=E] [=DF]2 |[M:1/4] [B,D]>[CE] |[M:4/4] [DF]2 [DB]2 [Fd]2 [_Af]2 | %7
 [Gf][Ge] [Ge]>[Fd] [Ge]2 G>[Gc] | B2 A>B c2 F2 |[M:3/4] [DB]6 |[M:1/4] [DB]>[Gc] | %11
[M:4/4] [^Fd]2 [FA]2 [Fd]3 [DAc] | [DAc]>[DGB] [DGB][D^FA] [DGB]2 [CGA]>[DGB] | %13
 [CGc]2 [CG]2 [C=Ec]3 [CGB] | [CGB][CFA] [CFA]>[C=EG] [CFA]2 [A,F]>[A,_EF] | %15
 [B,DF]2 [DB]2 [Fd]2 [_Af]2 | [Gf][Ge] [Ge]>[Fd] [Ge]2 G>[Gc] | B2 A>B c2 F2 | %18
[M:7/4] [DB]6 z2 z2 z4 |] %19
V:2
 z4 z2 [B,,F,]>[B,,F,] | [B,,B,]2 [D,F,B,]2 [F,B,D]3 [F,B,D] | %2
 [F,CE][F,CE] [F,CE]>[F,=B,E] [F,CE]2 [F,A,]>[F,_B,] | [F,C]2 [F,G,E]2 [F,CE]2 [F,A,E]2 | %4
[M:3/4] [B,,B,]>[B,,B,] [B,,B,][B,,G,] [B,,B,]2 |[M:1/4] [B,,F,]>[B,,F,] | %6
[M:4/4] [B,,B,]2 [B,,F,]2 [B,,B,]2 [D,B,]2 | [E,B,][E,B,] [E,B,]>[E,B,] [E,B,]2 [E,B,]>[E,E] | %8
 [F,DF]2 [F,CE]>[F,B,D] [F,A,E]2 [F,A,E]2 |[M:3/4] [B,,B,]6 |[M:1/4] [G,B,]>[E,G,] | %11
[M:4/4] [D,A,]2 [D,D]2 [D,A,]3 ^F, | G,>G, G,D, G,2 G,>G, | =E,2 E,2 C,3 E, | %14
 F,F, F,>C, F,2 F,>F, | B,,2 [B,,F,]2 [B,,B,]2 [D,B,]2 | %16
 [E,B,][E,B,] [E,B,]>[E,B,] [E,B,]2 [E,B,]>[E,E] | [F,DF]2 [F,CE]>[F,B,D] [F,A,E]2 [F,A,E]2 | %18
[M:7/4] [B,,B,]6 z2 z2 z4 |] %19

